!!!OTL: ACH MUSSTE DER TOD IHN UNS NEHMEN
!!!ARE: Europa, Mitteleuropa, Deutschland
!!!SCT: F0835
!!!YEM: Copyright 1995, estate of Helmut Schaffrath.
**kern
*ICvox
*Ivox
*M3/8
*k[f#c#g#]
*A:
{8cc#
=1
8dd
8cc#
8b
=2
8a
8g#
8a
=3
4.b
=4
8cc#
8r}
{8cc#
=5
8dd
8cc#
8b
=6
4a
8a
=7
8a
8f#
8g#
=8
8a
8r}
{8cc#
=9
8dd
8cc#
8b
=10
8a
8g#
8a
=11
4.b
=12
8cc#
8r}
{8cc#
=13
8dd
8cc#
8b
=14
4a
8a
=15
8a
8f#
8g#
=16
8a
8r}
{8a
=17
8b
8b
8dd
=18
8cc#
8cc#
8ee
=19
4.dd
=20
4cc#
8r}
=21
{8b
8b
8dd
=22
4cc#
8ee
=23
8dd
8dd
8dd
=24
4cc#
8r}
=25
{4cc#
8b
=26
8a
8g#
8f#
=27
4b
8a
=28
4g#}
{8cc#
=29
8dd
8cc#
8b
=30
8a
8g#
8a
=31
4.ee
=32
8cc#
8r}
{8cc#
=33
8dd
8cc#
8b
=34
8a
8g#
8a
=35
8a
8r}
==
!!!AGN: Romanze
!!!ONB: ESAC (Essen Associative Code) Database: FINK
!!!AMT: simple triple
!!!AIN: vox
!!!EED: Helmut Schaffrath
!!!EEV: 1.0
*-
